X: 325
T: Reel Saint-Antoine
O: Qu\'ebec
R: reel
Z: 2012 John Chambers <jc:trillian.mit.edu>
M: C|
L: 1/8
K: A
e2 | "A"a2aa- aece | a2aa- aece | agfe dcBA |1,3 "E7"GABc defg :|2,4 "E7"GABG "A"A2 :|
|: AB | "A"c2cc- cBce | dcBA GABc |1,3 "D"d2dd- dcdf | "E7"edcB "A"A2 :|2,4 "D"defg afed | "E7"cABG "A"A2 :|

%%newpage

